X: 29
T: Miss Nortons Minuet
%R: minuet, waltz
B: Straight & Skillern "Minuets for the year 1777", p.29
F: http://www.vwml.org/browse/browse-collections-dance-tune-books/browse-straight1777
Z: 2014 John Chambers <jc:trillian.mit.edu>
N: Version for ABC software that doesn't understand voice overlays.
M: 3/4
L: 1/8
K: Bb
% - - - - - - - - - - - - - - - - - - - - - - - - - - - - -
% Voice 1 formatted for a US-letter/A4 page size.
V: 1
|:\
[B2F2D2] BBBB | [B2F2D2] dBfd | [b2G2] T[a2F2] [g2E2] | gfTedTcB |\
e2 gege | d2 fdfd | cd [e2c2] [d2B2] | T[d2B2] [c2A2] z2 :|
|:\
f>g (3(_agf) (3(edc) | c2 T=B2 c2 | e>f (3(gfe) (3(dcB) | B2 A2 B2 |\
g2 egbg | f2 dfbf | (3({a}gfe) [d2B2] [c2A2] | [c2A2]B4 :|
% - - - - - - - - - - - - - - - - - - - - - - - - - - - - -
% Voice 2 preserves the original staff breaks.
V: 2 clef=bass middle=d
|:\
[b6B6] | [b6B6] | b6 | [d'6b6] |\
c2 c'2 a2 | B2 b2 d2 | e4 =e2 | f2 F2 z2 :|
|:\
f4 _a2 | g2 G2 c2 | c4 e2 | f2 F2 z2 |\
e6 | d4 B2 | e2 f2 F2 | Bbfd B2 :|
% - - - - - - - - - - - - - - - - - - - - - - - - - - - - -

%%sep 1 1 500
%%sep 1 1 500
